fs/multiplier_2x_32_filled.svg

<svg viewBox="0 0 32 32" fill="none" xmlns="http://www.w3.org/2000/svg" height="1em" width="1em">
  <path d="M7.97622 13.7533C8.64497 13.9033 9.30872 13.4869 9.46611 12.8217C9.46723 12.8175 9.47026 12.8064 9.4755 12.7894C9.48681 12.7526 9.50785 12.6899 9.54127 12.6101C9.60921 12.4479 9.72123 12.2316 9.89295 12.019C10.2081 11.6288 10.7689 11.1836 11.8662 11.1836C12.8983 11.1836 13.6193 11.521 14.0355 11.9685C14.435 12.3978 14.6848 13.067 14.5178 14.0388C14.4335 14.5297 14.1919 14.8194 13.6905 15.0991C13.2543 15.3423 12.7669 15.5048 12.149 15.7108C11.9002 15.7937 11.6303 15.8837 11.334 15.9889C10.4061 16.3182 9.28863 16.7853 8.42165 17.6997C7.5106 18.6607 6.99976 19.976 6.99976 21.7505C6.99976 22.082 7.13146 22.4 7.36588 22.6344C7.6003 22.8688 7.91824 23.0005 8.24976 23.0005H15.7498C16.4401 23.0005 16.9998 22.4408 16.9998 21.7505C16.9998 21.0601 16.4401 20.5005 15.7498 20.5005H9.64731C9.78412 20.0019 10.0014 19.6671 10.2359 19.4198C10.672 18.9598 11.3056 18.6517 12.1702 18.3449C12.3451 18.2828 12.539 18.2184 12.7444 18.1501C13.4322 17.9215 14.2486 17.6502 14.9081 17.2825C15.8748 16.7435 16.7359 15.8931 16.9817 14.4621C17.2614 12.834 16.8698 11.3447 15.8659 10.2656C14.8789 9.20463 13.4347 8.68359 11.8662 8.68359C9.93015 8.68359 8.68278 9.53842 7.94801 10.4482C7.59479 10.8856 7.37145 11.3193 7.23526 11.6446C7.16662 11.8085 7.11841 11.949 7.08599 12.0544C7.06974 12.1072 7.05732 12.1516 7.04821 12.1863C7.04365 12.2036 7.0399 12.2185 7.0369 12.2309L7.03295 12.2474L7.03137 12.2542L7.03069 12.2573L7.03036 12.2587C7.02992 12.2607 6.89875 12.846 7.03006 12.26C6.87899 12.9337 7.30259 13.6022 7.97622 13.7533ZM20.1339 16.3666C19.6457 15.8784 18.8543 15.8784 18.3661 16.3666C17.8779 16.8548 17.8779 17.6462 18.3661 18.1344L19.7322 19.5005L18.3661 20.8666C17.8779 21.3548 17.8779 22.1462 18.3661 22.6344C18.8543 23.1225 19.6457 23.1225 20.1339 22.6344L21.5 21.2683L22.8661 22.6344C23.3543 23.1225 24.1457 23.1225 24.6339 22.6344C25.122 22.1462 25.122 21.3548 24.6339 20.8666L23.2677 19.5005L24.6339 18.1344C25.122 17.6462 25.122 16.8548 24.6339 16.3666C24.1457 15.8784 23.3543 15.8784 22.8661 16.3666L21.5 17.7327L20.1339 16.3666Z" fill="#212121"/>
</svg>

<svg viewBox="0 0 32 32" fill="none" xmlns="http://www.w3.org/2000/svg" height="1em" width="1em">
  <path d="M7.976 13.753a1.25 1.25 0 0 0 1.5-.964 2.471 2.471 0 0 1 .417-.77c.315-.39.876-.835 1.973-.835 1.032 0 1.753.337 2.17.785.399.429.649 1.098.482 2.07-.085.49-.326.78-.828 1.06-.436.243-.923.406-1.541.612-.249.083-.519.173-.815.278-.928.33-2.045.796-2.912 1.71C7.51 18.662 7 19.977 7 21.75A1.25 1.25 0 0 0 8.25 23h7.5a1.25 1.25 0 0 0 0-2.5H9.647c.137-.498.354-.833.589-1.08.436-.46 1.07-.768 1.934-1.075.175-.062.369-.127.574-.195.688-.228 1.505-.5 2.164-.867.967-.54 1.828-1.39 2.074-2.82.28-1.629-.112-3.118-1.116-4.197-.987-1.061-2.431-1.582-4-1.582-1.936 0-3.183.854-3.918 1.764a4.97 4.97 0 0 0-.862 1.606 3.3 3.3 0 0 0-.05.177l-.003.016-.002.007v.005c-.001.002-.132.587 0 .001a1.25 1.25 0 0 0 .945 1.493Zm12.158 2.614a1.25 1.25 0 1 0-1.768 1.767l1.366 1.366-1.366 1.367a1.25 1.25 0 1 0 1.768 1.767l1.366-1.366 1.366 1.366a1.25 1.25 0 0 0 1.768-1.767L23.268 19.5l1.366-1.366a1.25 1.25 0 0 0-1.768-1.767L21.5 17.733l-1.366-1.366Z" fill="#212121"/>
</svg>
